X:0605
T:Oxton Reel
P:Cameron's got his wife again
C:Bremner's Coll. 1757
R:Strathspey (6x24)
B:RSCDS 6-5
Z:Anselm Lingnau <anselm@strathspey.org>
M:C
L:1/8
K:D
f|"D"d>B A>F A/A/A A>B|d>B A>F "A"E/E/E E>c|\
  "D"d>B A>F A>g "D"f>e|"G"d>G "A7"A>F "D"D/D/D D3||
g|"D"f>d f>a "A7"e>g f>e|"D"f>d f>a "G"B/B/B/ B>g|\
  "D"f>d f>a "Em"e>g "D7"f>e|"Bm"d>B "A7"A>F "D"D/D/D D>g|
  "D"f>d f>a "A7"e>g f>e|"D"f>d f>a "G"B/B/B/ B>c|\
  "D"d/e/f/g/ a>f "A7"e>g f>e|"Bm"d>B "A7"A>F "D"D/D/D D3/2|]
